svg/icon/plr.svg

<svg height="32" viewBox="0 0 32 32" width="32" xmlns="http://www.w3.org/2000/svg" xmlns:xlink="http://www.w3.org/1999/xlink"><defs><linearGradient id="a" x1="50%" x2="50%" y1="0%" y2="100%"><stop offset="0" stop-color="#fff" stop-opacity=".5"/><stop offset="1" stop-opacity=".5"/></linearGradient><circle id="b" cx="16" cy="15" r="15"/><filter id="c" height="111.7%" width="111.7%" x="-5.8%" y="-4.2%"><feOffset dy=".5" in="SourceAlpha" result="shadowOffsetOuter1"/><feGaussianBlur in="shadowOffsetOuter1" result="shadowBlurOuter1" stdDeviation=".5"/><feComposite in="shadowBlurOuter1" in2="SourceAlpha" operator="out" result="shadowBlurOuter1"/><feColorMatrix in="shadowBlurOuter1" values="0 0 0 0 0   0 0 0 0 0   0 0 0 0 0  0 0 0 0.199473505 0"/></filter><path id="d" d="m8.40974867 19.902439h-.09748667v4.097561h-2.312262v-13.875h2.2604722v.6402439h.0883473c.78903275-.7560976 1.794364-.77743902 2.3579589-.77743902 2.3640518 0 3.9146991 2.25304882 3.9146991 5.26219512v.3902439c0 3.1310976-1.794364 4.9969512-3.9543031 4.9969512-1.01142421.0030488-1.760853-.2286585-2.25742573-.7347561zm4.06397563-4.0762195v-.6829268c0-1.9603659-.7463823-3.2713415-2.0776847-3.2713415-1.4379284 0-2.2086824 1.5243903-2.2086824 3.2713415v.679878c0 1.6646342.75856816 2.9390244 2.2482864 2.9390244 1.1728865-.0030488 2.0380807-.9176829 2.0380807-2.9359756zm3.2658035-9.8262195h2.3153085v14.5762195h-2.3153085zm8.9291698 6.4085366c-1.2977913 0-2.5864432 1.0304878-2.5864432 2.3323171v5.8445122h-2.3031226v-10.3628049h2.1325209v.6371951h.0883473c.5178979-.5457317 1.7852247-.8018293 2.8271135-.7865854.1035796 0 .0182787.0030488.1188119.0030488l.0121858 2.3323171zm-.9718202 5.6859756h2.3031226v2.4817073h-2.3031226z"/><filter id="e" height="119.4%" width="117.5%" x="-8.8%" y="-6.9%"><feOffset dy=".5" in="SourceAlpha" result="shadowOffsetOuter1"/><feGaussianBlur in="shadowOffsetOuter1" result="shadowBlurOuter1" stdDeviation=".5"/><feColorMatrix in="shadowBlurOuter1" values="0 0 0 0 0   0 0 0 0 0   0 0 0 0 0  0 0 0 0.204257246 0"/></filter></defs><g fill="none" fill-rule="evenodd"><use fill="#000" filter="url(#c)" xlink:href="#b"/><use fill="#00bfff" xlink:href="#b"/><use fill="url(#a)" xlink:href="#b"/><circle cx="16" cy="15" r="14.5" stroke="#000" stroke-opacity=".097"/><g fill-rule="nonzero"><use fill="#000" filter="url(#e)" xlink:href="#d"/><use fill="#fff" fill-rule="evenodd" xlink:href="#d"/></g></g></svg>

<svg xmlns="http://www.w3.org/2000/svg" xmlns:xlink="http://www.w3.org/1999/xlink" width="32" height="32" viewBox="0 0 32 32">
  <defs>
    <linearGradient id="plr-c" x1="50%" x2="50%" y1="0%" y2="100%">
      <stop offset="0%" stop-color="#FFF" stop-opacity=".5"/>
      <stop offset="100%" stop-opacity=".5"/>
    </linearGradient>
    <circle id="plr-b" cx="16" cy="15" r="15"/>
    <filter id="plr-a" width="111.7%" height="111.7%" x="-5.8%" y="-4.2%" filterUnits="objectBoundingBox">
      <feOffset dy=".5" in="SourceAlpha" result="shadowOffsetOuter1"/>
      <feGaussianBlur in="shadowOffsetOuter1" result="shadowBlurOuter1" stdDeviation=".5"/>
      <feComposite in="shadowBlurOuter1" in2="SourceAlpha" operator="out" result="shadowBlurOuter1"/>
      <feColorMatrix in="shadowBlurOuter1" values="0 0 0 0 0   0 0 0 0 0   0 0 0 0 0  0 0 0 0.199473505 0"/>
    </filter>
    <path id="plr-e" d="M8.40974867,19.902439 L8.312262,19.902439 L8.312262,24 L6,24 L6,10.125 L8.2604722,10.125 L8.2604722,10.7652439 L8.3488195,10.7652439 C9.13785225,10.0091463 10.1431835,9.98780488 10.7067784,9.98780488 C13.0708302,9.98780488 14.6214775,12.2408537 14.6214775,15.25 L14.6214775,15.6402439 C14.6214775,18.7713415 12.8271135,20.6371951 10.6671744,20.6371951 C9.65575019,20.6402439 8.9063214,20.4085366 8.40974867,19.902439 Z M12.4737243,15.8262195 L12.4737243,15.1432927 C12.4737243,13.1829268 11.727342,11.8719512 10.3960396,11.8719512 C8.9581112,11.8719512 8.1873572,13.3963415 8.1873572,15.1432927 L8.1873572,15.8231707 C8.1873572,17.4878049 8.94592536,18.7621951 10.4356436,18.7621951 C11.6085301,18.7591463 12.4737243,17.8445122 12.4737243,15.8262195 Z M15.7395278,6 L18.0548363,6 L18.0548363,20.5762195 L15.7395278,20.5762195 L15.7395278,6 Z M24.6686976,12.4085366 C23.3709063,12.4085366 22.0822544,13.4390244 22.0822544,14.7408537 C22.0822544,15.6280488 22.0822544,20.5853659 22.0822544,20.5853659 L19.7791318,20.5853659 L19.7791318,10.222561 L21.9116527,10.222561 L21.9116527,10.8597561 L22,10.8597561 C22.5178979,10.3140244 23.7852247,10.0579268 24.8271135,10.0731707 C24.9306931,10.0731707 24.8453922,10.0762195 24.9459254,10.0762195 L24.9581112,12.4085366 L24.6686976,12.4085366 Z M23.6968774,18.0945122 L26,18.0945122 L26,20.5762195 L23.6968774,20.5762195 L23.6968774,18.0945122 Z"/>
    <filter id="plr-d" width="117.5%" height="119.4%" x="-8.8%" y="-6.9%" filterUnits="objectBoundingBox">
      <feOffset dy=".5" in="SourceAlpha" result="shadowOffsetOuter1"/>
      <feGaussianBlur in="shadowOffsetOuter1" result="shadowBlurOuter1" stdDeviation=".5"/>
      <feColorMatrix in="shadowBlurOuter1" values="0 0 0 0 0   0 0 0 0 0   0 0 0 0 0  0 0 0 0.204257246 0"/>
    </filter>
  </defs>
  <g fill="none" fill-rule="evenodd">
    <use fill="#000" filter="url(#plr-a)" xlink:href="#plr-b"/>
    <use fill="#00BFFF" xlink:href="#plr-b"/>
    <use fill="url(#plr-c)" style="mix-blend-mode:soft-light" xlink:href="#plr-b"/>
    <circle cx="16" cy="15" r="14.5" stroke="#000" stroke-opacity=".097"/>
    <g fill-rule="nonzero">
      <use fill="#000" filter="url(#plr-d)" xlink:href="#plr-e"/>
      <use fill="#FFF" fill-rule="evenodd" xlink:href="#plr-e"/>
    </g>
  </g>
</svg>
